X:257
T: Goblet of Wine (The)
N: O'Farrell's Pocket Companion v.3 (Sky ed. p.120)
M: 3/4
L: 1/8
R: waltz
Q: 220
K: Em
B2| e2 B2 A2| G>F E2 g2| f2 e^de>f| B4 AB| c2 c2 B2|
{B}A4 A>B| cB AG FE| B4 B2| G3 ABc| d4 ce| d2 cB A2|
G4 B>c| d<B g2 d2| d2 cB cd/e/| {e}d2 cBAG| D4 EF|
GF EF GA| B2 B2 e^d| e2 G2 E2| B4 B2| c2c2c2|
B3 cBc| A3 BAB| G3 BAG| cB AGFE| B4 GF| E2G2B2|
e2 dcBA| BA B2 B2| E4 ||
